X:40
T: Bulgar: Joe Kutcher's #1
O:klezmer
C: Joe Kutcher (Kammen 9#13)
Z: John Chambers <jc@trillian.mit.edu>
N: (1) The original had several more bars of Cm here.
B: Kammen 9 #13
R: Bulgar
M: 2/4
L: 1/8
K: Am
E^GA \
|: "E"B4-    | BB "Am"c/B/A        | "E"c B3-  | B^G  "Dm"{B}A/G/F \
|  "E"A ^G3- | "E"^GE "Dm"{G}F/E/D | "E"EF ^GA | Bc ^de            |
|  "E"B4-    | Bd "Am"c/B/A        | "E"c B3-  | B^G  "Dm"{B}A/G/F \
|  "E"A ^G3- | ^GE "Dm"{G}F/E/D    | "E"E4-    | E :|
"E7"E[cE][BD] \
|: "Am"[A4C]-      | [AC][cE] [BD][AC]        | "E7"[BD] [^G3B,]- | [^GB,]E [cE][BD] \
|  "Am"[A3C] e     | "B7"^d/e/^f/e/ ^d/c/B/A/ | "(E)"B4-          | "E7"BE [cE][BD]  |
|  "Am"A^G "(G)"AB | "(Fc')"cB "(E)"c^c       | "Dm"[d4F]         | "(1)"[d2F] [d2F] \
|  "E"dB "Am"c/B/A | "E"B^G "Dm"A/G/F         | "E"^GE "Dm"F/E/D  | "E"E  :|





